!!!COM: Palestrina, Giovanni Perluigi da
!!!OPR: Sine nomine (1591)
!!!OTL: Agnus II
**kern	**kern	**kern	**kern	**kern	**kern
*Ibass	*Itenor	*Itenor	*Icalto	*Icant	*Icant
!Bassus	!Tenor 2	!Tenor 1	!Altus	!Cantus 2	!Cantus 1
*clefF4	*clefGv2	*clefGv2	*clefG2	*clefG2	*clefG2
*k[b-]	*k[b-]	*k[b-]	*k[b-]	*k[b-]	*k[b-]
*G:dor	*G:dor	*G:dor	*G:dor	*G:dor	*G:dor
*M4/2	*M4/2	*M4/2	*M4/2	*M4/2	*M4/2
=1	=1	=1	=1	=1	=1
0r	1r	0r	0r	1.g	0r
.	[1G	.	.	.	.
.	.	.	.	2g	.
=2	=2	=2	=2	=2	=2
0r	2G]	0r	1r	2.b-	1.d
.	2G	.	.	.	.
.	.	.	.	8a	.
.	.	.	.	8g	.
.	2.B-	.	[1d	2f	.
.	.	.	.	2g	2d
.	8A	.	.	.	.
.	8G	.	.	.	.
=3	=3	=3	=3	=3	=3
0r	2F	0r	2d]	2a	2f
.	2G	.	2d	2b-	4e
.	.	.	.	.	4d
.	[1A	.	2f	[1a	2.c
.	.	.	4e	.	.
.	.	.	4d	.	4d
=4	=4	=4	=4	=4	=4
0r	2A]	0r	2c	1a]	2e
.	2F	.	1d	.	2f
.	2G	.	.	2r	1e
.	2A	.	2c#	[2a	.
=5	=5	=5	=5	=5	=5
1.D	2.F	1r	0d	2a]	4d
.	.	.	.	.	4e
.	.	.	.	2a	4f
.	4E	.	.	.	4g
.	4D	[1A	.	2.f	[1a
.	4E	.	.	.	.
2D	4F	.	.	.	.
.	4G	.	.	8e	.
.	.	.	.	8d	.
=6	=6	=6	=6	=6	=6
2.F	2A	2A]	0r	2c	1a]
.	2F	2A	.	2d	.
8E	.	.	.	.	.
8D	.	.	.	.	.
2C	4G	2c	.	2e-	1r
.	4A	.	.	.	.
2D	[2B-	4B-	.	[2d	.
.	.	4A	.	.	.
=7	=7	=7	=7	=7	=7
1E-	4B-]	2.G	1r	2d]	1r
.	4A	.	.	.	.
.	1G	.	.	2c	.
.	.	4A	.	.	.
[1D	.	2B-	2r	1d	2r
.	2F#	2A	2d	.	[2a
=8	=8	=8	=8	=8	=8
1D]	2r	1d	1f	1r	2a]
.	1A	.	.	.	2a
1r	.	1c	2e	2r	2.cc
.	2A	.	[2c	[2e	.
.	.	.	.	.	8b
.	.	.	.	.	8a
=9	=9	=9	=9	=9	=9
0r	2.c	1C	4c]	2e]	2g
.	.	.	4d	.	.
.	.	.	4e	2e	2a
.	8B	.	4c	.	.
.	8A	.	.	.	.
.	2G	1r	2d	2g	2b-
.	2A	.	2c	4f	[2a
.	.	.	.	4e	.
=10	=10	=10	=10	=10	=10
1r	1B-	1G	2r	2.d	2a]
.	.	.	1d	.	2g
.	.	.	.	4e	.
[1D	1A	2.F	.	2.f	1a
.	.	.	2d	.	.
.	.	4E	.	4g	.
=11	=11	=11	=11	=11	=11
2D]	2r	2D	2.f	1a	1r
2D	1A	2.F	.	.	.
.	.	.	8e	.	.
.	.	.	8d	.	.
2.F	.	.	2c	1a	2r
.	.	4G	.	.	.
.	2A	[2A	2d	.	[2a
8E	.	.	.	.	.
8D	.	.	.	.	.
=12	=12	=12	=12	=12	=12
2C	2c	4A]	2e	2r	2a]
.	.	4G	.	.	.
2D	2A	2F	1d	2d	2a
1AA	1A	1E	.	1e	1a
.	.	.	2c#	.	.
=13	=13	=13	=13	=13	=13
1D	2r	1D	1d	1f	1a
.	2F	.	.	.	.
1r	2G	1r	2r	1d	2r
.	2B-	.	2d	.	2f
=14	=14	=14	=14	=14	=14
0r	2E-	0r	2e-	1r	2g
.	2G	.	2d	.	2b-
.	1F	.	1f	2r	4a
.	.	.	.	.	4b-
.	.	.	.	2c	4cc
.	.	.	.	.	4a
=15	=15	=15	=15	=15	=15
0r	2B-	2r	1f	2d	2b-
.	2A	2F	.	2f	4cc
.	.	.	.	.	4a
.	1G	2G	1d	2e	4b-
.	.	.	.	.	4cc
.	.	[2B-	.	4d	[2dd
.	.	.	.	4e	.
=16	=16	=16	=16	=16	=16
0r	1F	2B-]	0r	4f	2dd]
.	.	.	.	4g	.
.	.	2A	.	2a	2cc
.	1r	2G	.	2d	2b-
.	.	2F	.	[2f	2a
=17	=17	=17	=17	=17	=17
2r	0r	2.c	1r	2f]	1g
2C	.	.	.	2e	.
.	.	4B-	.	.	.
2D	.	1A	2r	[1f	1f
2F	.	.	2c	.	.
=18	=18	=18	=18	=18	=18
2BB-	2r	2.B-	2d	1f]	2r
2D	2F	.	2f	.	2d
.	.	8A	.	.	.
.	.	8B-	.	.	.
2C	2G	2c	2e	1r	2e
4BB-	2B-	2F	[2d	.	2f
4C	.	.	.	.	.
=19	=19	=19	=19	=19	=19
4D	2.A	1F	2d]	0r	1f
4E	.	.	.	.	.
2.F	.	.	4c	.	.
.	4B-	.	4B-	.	.
.	2c	2r	2A	.	1f
4E-	.	.	.	.	.
2D	[2B-	2B-	2F	.	.
=20	=20	=20	=20	=20	=20
1C	2B-]	2c	2G	1r	2r
.	2A	2e-	2c	.	2c
1BB-	2.B-	1d	1F	2r	2d
.	.	.	.	2f	2f
.	4A	.	.	.	.
=21	=21	=21	=21	=21	=21
1r	1G	2.B-	0r	2g	2e
.	.	.	.	2b-	4d
.	.	4c	.	.	4e
2r	1F	2d	.	4a	4f
.	.	.	.	4b-	4g
2F	.	2c	.	4cc	2a
.	.	.	.	4a	.
=22	=22	=22	=22	=22	=22
2G	0r	1B-	1r	4b-	2g
.	.	.	.	4cc	.
2B-	.	.	.	2dd	4f
.	.	.	.	.	4e
2A	.	2c	2r	2cc	1f
[2B-	.	4B-	2d	[2dd	.
.	.	4A	.	.	.
=23	=23	=23	=23	=23	=23
2B-]	2r	1G	2d	4dd]	1g
.	.	.	.	4cc	.
2E-	2G	.	2e-	2b-	.
2F	2A	1r	2c	2a	2f
[2BB-	2D	.	2B-	2b-	[2dd
=24	=24	=24	=24	=24	=24
4BB-]	1d	0r	2B-	[0f	4dd]
4C	.	.	.	.	4cc
4D	.	.	2.f	.	1b-
4E	.	.	.	.	.
1F	1c	.	.	.	.
.	.	.	4e-	.	.
.	.	.	2c	.	2a
=25	=25	=25	=25	=25	=25
0BB-	0B-	2r	2.d	1f]	1b-
.	.	2.d	.	.	.
.	.	.	4e-	.	.
.	.	.	1f	2r	2.dd
.	.	4c	.	.	.
.	.	4B-	.	[2dd	.
.	.	4A	.	.	4cc
=26	=26	=26	=26	=26	=26
0r	0r	2G	2.g	4dd]	4b-
.	.	.	.	4cc	4a
.	.	2G	.	4b-	2g
.	.	.	4f	4a	.
.	.	2.c	4e	2g	2g
.	.	.	4d	.	.
.	.	.	2c	2g	[2cc
.	.	4B-	.	.	.
=27	=27	=27	=27	=27	=27
0r	0r	4A	2c	2.cc	4cc]
.	.	4G	.	.	4b-
.	.	2F	2.f	.	4a
.	.	.	.	4b-	4g
.	.	2F	.	4a	2.f
.	.	.	4e-	4g	.
.	.	[2B-	4d	[2f	.
.	.	.	4c	.	4e-
=28	=28	=28	=28	=28	=28
0r	0r	2B-]	2B-	4f]	4d
.	.	.	.	4g	4e
.	.	4A	2.c	1a	4f
.	.	4G	.	.	4g
.	.	2F	.	.	2a
.	.	.	4d	.	.
.	.	2G	2B-	4g	2b-
.	.	.	.	4f	.
=29	=29	=29	=29	=29	=29
0r	1r	0A	2c	2e	0a
.	.	.	1d	2d	.
.	2r	.	.	1e	.
.	[2A	.	2c#	.	.
=30	=30	=30	=30	=30	=30
2r	4A]	2D	1d	2f	1a
.	4G	.	.	.	.
2.D	4F	4A	.	2d	.
.	4E	4G	.	.	.
.	2D	4F	2.d	1f	1r
4C	.	4E	.	.	.
4BB-	2D	2D	.	.	.
4AA	.	.	4c	.	.
=31	=31	=31	=31	=31	=31
2GG	2.d	2D	4B-	1g	0r
.	.	.	4A	.	.
2GG	.	2.d	2G	.	.
.	4c	.	.	.	.
2.G	4B-	.	2G	1g	.
.	4A	4c	.	.	.
.	2G	4B-	[2g	.	.
4F	.	4A	.	.	.
=32	=32	=32	=32	=32	=32
4E	2G	2G	4g]	0r	0r
4D	.	.	4f	.	.
1C	2.c	2G	4e	.	.
.	.	.	4d	.	.
.	.	2.c	2e	.	.
.	4B-	.	.	.	.
2C	4A	.	2e	.	.
.	4G	4B-	.	.	.
=33	=33	=33	=33	=33	=33
0D	2F	2A	1d	0r	1r
.	1G	2B-	.	.	.
.	.	1A	2d	.	2r
.	2F#	.	4d	.	[2dd
.	.	.	4c	.	.
=34	=34	=34	=34	=34	=34
2GG	1G	2G	4B-	2.dd	4dd]
.	.	.	4A	.	4cc
2.G	.	2B-	2G	.	4b-
.	.	.	.	4cc	4a
.	1r	2B-	2G	4b-	2g
4F	.	.	.	4a	.
4E	.	[2c	4g	2g	2g
4D	.	.	4f	.	.
=35	=35	=35	=35	=35	=35
2C	0r	2c]	4e	2g	2.cc
.	.	.	4d	.	.
2C	.	2G	2c	2.cc	.
.	.	.	.	.	4b-
2.F	.	1A	2c	.	4a
.	.	.	.	4b-	4g
.	.	.	[2f	4a	4f
4E-	.	.	.	4g	4g
=36	=36	=36	=36	=36	=36
4D	2r	2A	4f]	2f	2a
4C	.	.	4e-	.	.
4BB-	2.d	2D	4d	2f	2b-
4AA	.	.	4c	.	.
[1GG	.	2D	2.B-	2.g	2.dd
.	4c	.	.	.	.
.	4B-	[2d	.	.	.
.	4A	.	4c	4a	4cc
=37	=37	=37	=37	=37	=37
1GG]	2G	4d]	1d	4b-	4b-
.	.	4c	.	4cc	4a
.	2G	4B-	.	2.dd	2.b-
.	.	4A	.	.	.
1GG	[1B-	2G	1d	.	.
.	.	.	.	4cc	4a
.	.	2G	.	[2b-	2g
=38	=38	=38	=38	=38	=38
2.BB-	2B-]	0D	0d	4b-]	4f
.	.	.	.	4a	4d
.	2B-	.	.	1g	2.dd
4C	.	.	.	.	.
1D	1A	.	.	.	.
.	.	.	.	.	4cc
.	.	.	.	2f#	2a
=39	=39	=39	=39	=39	=39
[0GG	[0G	[0D	[0d	[0g	[0b
=40	=40	=40	=40	=40	=40
0GG]	0G]	0D]	0d]	0g]	0b]
==	==	==	==	==	==
*-	*-	*-	*-	*-	*-
!!!CDT: 1525/^1526/-1594/2/2
!!!OCY: Italia
!!!AGN: Mass (Parody)
!!!AST: renaissance, vocal
!!!ASW: Motet (unidentified)
!!!PWK: Masses, Book 1
!!!RNB: Cadence finals: D
!!!YOR: Le Opere Complete, v. 1, p. 182
!!!YOO: Rome, Italy: Fratelli Scalera
!!!END: 1992//
!!!EED: John Miller
!!!YEC: Copyright 2000, John Miller
!!!YEN: United States of America
!!!YEM: Rights to all derivative electronic formats reserved.
!!!YEM: Refer to licensing agreement for further details.
!!!YEM: This file must be accompanied by the licensing agreement.
!!!YEM: A copy of the licensing agreement may be found at http://www.music-cog.ohio-state.edu/HumdrumDatabases/Palestrina/license.txt
!!!EMD: converted to Humdrum by Bret Aarden
